X:1
T:The Happy Marriage
T:The Happy Marriage
L:1/8
M:6/8
K:Emin
V:1 treble 
V:1
 b | g>fe ^d>ef g3 f>gab>c'bgea f3 g3 | a>bc' b>agf>gf/e<^de/fd>^cBB>c^A B3 B2 b | %3
 g>fe ^d>ef g3 f>gab>c'bgea f3 g3 | a>bc' b>agf>gf/e<^de/fd>^cBB>c^A B3 B2 f | %5
 f>ge ^d>efB>ed e2 b c'2 ba>gfe>fg f2 g | afd g2 abge c'2 bafdg>af g3 g2 a | %7
 bg/a/b af/g/age/f/gf>^dfb>agg>fe e3 e2 a | bg/a/b af/g/age/f/gf>^dfb>agg>fe e3 e2 || %9

